X: 1
T: G\aangl\aat efter P\aal Olle
O: Malung 1981
R: march
Z: 2017 John Chambers <jc:trillian.mit.edu>
S: handwritten MS of unknown origin.
M: 2/4
L: 1/16
K: A
(Ac) |\
"A"~e2ce a2(gf) | (ef)ec A2(3(AB)c | ~d2E2 (EG)(Bc) |\
[1 dfed (~cB) :|[2 [A6A6] :| [K:=g]
K: D
|: z([AD] |:\
~f2)(ed) ~A2(FA) | ~G2(FG) [E4A,4] | E(E{F}G)A (Bd)(ce) |\
[1 d>ef(g b2)a2 :|[2 d6 :|
